X: 1
T: SKIN THE PEELER -- JIG
B: Ryan's Mammoth Collection of Fiddle Tunes
R: slipjig
M: 9/8
L: 1/8
Z: Contributed 20000421141849 by John Chambers jchambers:casc.com
K: G
uA \
| B2d e2f Tg3 | A2B d2f (dBA) | B2d e2f Tg2a | b2a Tg2e (dBA) |
:: vB2A B2A G2A | B2A B2e (dBA) | B2A B2A G2A | B2d e2f (dBA) :|
